images/29675.svg

<?xml version="1.0" encoding="UTF-8"?>
<svg xmlns="http://www.w3.org/2000/svg" xmlns:xlink="http://www.w3.org/1999/xlink" width="300pt" height="300pt" viewBox="0 0 300 300" version="1.1">
<defs>
<g>
<symbol overflow="visible" id="glyph0-0">
<path style="stroke:none;" d="M 0.59375 2.125 L 0.59375 -8.46875 L 6.59375 -8.46875 L 6.59375 2.125 Z M 1.265625 1.453125 L 5.9375 1.453125 L 5.9375 -7.78125 L 1.265625 -7.78125 Z M 1.265625 1.453125 "/>
</symbol>
<symbol overflow="visible" id="glyph0-1">
<path style="stroke:none;" d="M 1.171875 -8.75 L 6.203125 -8.75 L 6.203125 -7.75 L 2.359375 -7.75 L 2.359375 -5.171875 L 5.828125 -5.171875 L 5.828125 -4.171875 L 2.359375 -4.171875 L 2.359375 0 L 1.171875 0 Z M 1.171875 -8.75 "/>
</symbol>
<symbol overflow="visible" id="glyph0-2">
<path style="stroke:none;" d="M 1.171875 -8.75 L 2.765625 -8.75 L 6.65625 -1.4375 L 6.65625 -8.75 L 7.796875 -8.75 L 7.796875 0 L 6.203125 0 L 2.328125 -7.3125 L 2.328125 0 L 1.171875 0 Z M 1.171875 -8.75 "/>
</symbol>
<symbol overflow="visible" id="glyph0-3">
<path style="stroke:none;" d="M 4.734375 -7.953125 C 3.867188 -7.953125 3.179688 -7.628906 2.671875 -6.984375 C 2.171875 -6.347656 1.921875 -5.472656 1.921875 -4.359375 C 1.921875 -3.265625 2.171875 -2.394531 2.671875 -1.75 C 3.179688 -1.113281 3.867188 -0.796875 4.734375 -0.796875 C 5.585938 -0.796875 6.265625 -1.113281 6.765625 -1.75 C 7.273438 -2.394531 7.53125 -3.265625 7.53125 -4.359375 C 7.53125 -5.472656 7.273438 -6.347656 6.765625 -6.984375 C 6.265625 -7.628906 5.585938 -7.953125 4.734375 -7.953125 Z M 4.734375 -8.90625 C 5.953125 -8.90625 6.925781 -8.492188 7.65625 -7.671875 C 8.394531 -6.847656 8.765625 -5.742188 8.765625 -4.359375 C 8.765625 -2.984375 8.394531 -1.882812 7.65625 -1.0625 C 6.925781 -0.238281 5.953125 0.171875 4.734375 0.171875 C 3.503906 0.171875 2.519531 -0.238281 1.78125 -1.0625 C 1.039062 -1.882812 0.671875 -2.984375 0.671875 -4.359375 C 0.671875 -5.742188 1.039062 -6.847656 1.78125 -7.671875 C 2.519531 -8.492188 3.503906 -8.90625 4.734375 -8.90625 Z M 4.734375 -8.90625 "/>
</symbol>
</g>
</defs>
<g id="surface21185">
<rect x="0" y="0" width="300" height="300" style="fill:rgb(100%,100%,100%);fill-opacity:1;stroke:none;"/>
<path style="fill:none;stroke-width:1.2;stroke-linecap:butt;stroke-linejoin:miter;stroke:rgb(20%,80%,80%);stroke-opacity:1;stroke-miterlimit:10;" d="M 42.589844 120.53125 L 48.84375 133.484375 "/>
<path style="fill:none;stroke-width:1.2;stroke-linecap:butt;stroke-linejoin:miter;stroke:rgb(0%,0%,0%);stroke-opacity:1;stroke-miterlimit:10;" d="M 48.84375 133.484375 L 55.101562 146.441406 "/>
<path style=" stroke:none;fill-rule:nonzero;fill:rgb(100%,100%,100%);fill-opacity:1;" d="M 35.589844 113.53125 L 42.589844 113.53125 L 42.589844 127.53125 L 35.589844 127.53125 Z M 35.589844 113.53125 "/>
<g style="fill:rgb(20%,80%,80%);fill-opacity:1;">
  <use xlink:href="#glyph0-1" x="35.589844" y="124.669922"/>
</g>
<path style="fill:none;stroke-width:1.2;stroke-linecap:butt;stroke-linejoin:miter;stroke:rgb(0%,0%,0%);stroke-opacity:1;stroke-miterlimit:10;" d="M 55.101562 146.441406 L 38.917969 170.234375 "/>
<path style="fill:none;stroke-width:1.2;stroke-linecap:butt;stroke-linejoin:miter;stroke:rgb(0%,0%,0%);stroke-opacity:1;stroke-miterlimit:10;" d="M 59.082031 152.628906 L 46.136719 171.660156 "/>
<path style="fill:none;stroke-width:1.2;stroke-linecap:butt;stroke-linejoin:miter;stroke:rgb(0%,0%,0%);stroke-opacity:1;stroke-miterlimit:10;" d="M 83.796875 148.558594 L 55.101562 146.441406 "/>
<path style="fill:none;stroke-width:1.2;stroke-linecap:butt;stroke-linejoin:miter;stroke:rgb(0%,0%,0%);stroke-opacity:1;stroke-miterlimit:10;" d="M 38.917969 170.234375 L 51.433594 196.144531 "/>
<path style="fill:none;stroke-width:1.2;stroke-linecap:butt;stroke-linejoin:miter;stroke:rgb(0%,0%,0%);stroke-opacity:1;stroke-miterlimit:10;" d="M 51.433594 196.144531 L 43.339844 208.039062 "/>
<path style="fill:none;stroke-width:1.2;stroke-linecap:butt;stroke-linejoin:miter;stroke:rgb(20%,80%,80%);stroke-opacity:1;stroke-miterlimit:10;" d="M 43.339844 208.039062 L 35.25 219.933594 "/>
<path style="fill:none;stroke-width:1.2;stroke-linecap:butt;stroke-linejoin:miter;stroke:rgb(0%,0%,0%);stroke-opacity:1;stroke-miterlimit:10;" d="M 51.433594 196.144531 L 80.128906 198.261719 "/>
<path style="fill:none;stroke-width:1.2;stroke-linecap:butt;stroke-linejoin:miter;stroke:rgb(0%,0%,0%);stroke-opacity:1;stroke-miterlimit:10;" d="M 54.800781 189.601562 L 77.757812 191.296875 "/>
<path style=" stroke:none;fill-rule:nonzero;fill:rgb(100%,100%,100%);fill-opacity:1;" d="M 28.25 212.933594 L 35.25 212.933594 L 35.25 226.933594 L 28.25 226.933594 Z M 28.25 212.933594 "/>
<g style="fill:rgb(20%,80%,80%);fill-opacity:1;">
  <use xlink:href="#glyph0-1" x="28.25" y="224.072266"/>
</g>
<path style="fill:none;stroke-width:1.2;stroke-linecap:butt;stroke-linejoin:miter;stroke:rgb(0%,0%,0%);stroke-opacity:1;stroke-miterlimit:10;" d="M 80.128906 198.261719 L 96.308594 174.46875 "/>
<path style="fill:none;stroke-width:1.2;stroke-linecap:butt;stroke-linejoin:miter;stroke:rgb(0%,0%,0%);stroke-opacity:1;stroke-miterlimit:10;" d="M 96.308594 174.46875 L 83.796875 148.558594 "/>
<path style="fill:none;stroke-width:1.2;stroke-linecap:butt;stroke-linejoin:miter;stroke:rgb(0%,0%,0%);stroke-opacity:1;stroke-miterlimit:10;" d="M 88.960938 174.824219 L 78.953125 154.09375 "/>
<path style="fill:none;stroke-width:1.2;stroke-linecap:butt;stroke-linejoin:miter;stroke:rgb(0%,0%,0%);stroke-opacity:1;stroke-miterlimit:10;" d="M 83.796875 148.558594 L 99.980469 124.769531 "/>
<path style="fill:none;stroke-width:1.2;stroke-linecap:butt;stroke-linejoin:miter;stroke:rgb(0%,0%,0%);stroke-opacity:1;stroke-miterlimit:10;" d="M 99.980469 124.769531 L 95.113281 111.230469 "/>
<path style="fill:none;stroke-width:1.2;stroke-linecap:butt;stroke-linejoin:miter;stroke:rgb(0%,0%,100%);stroke-opacity:1;stroke-miterlimit:10;" d="M 95.113281 111.230469 L 90.242188 97.691406 "/>
<path style="fill:none;stroke-width:1.2;stroke-linecap:butt;stroke-linejoin:miter;stroke:rgb(0%,0%,0%);stroke-opacity:1;stroke-miterlimit:10;" d="M 128.738281 123.875 L 99.980469 124.769531 "/>
<path style="fill:none;stroke-width:1.2;stroke-linecap:butt;stroke-linejoin:miter;stroke:rgb(0%,0%,0%);stroke-opacity:1;stroke-miterlimit:10;" d="M 125.652344 117.199219 L 102.644531 117.914062 "/>
<path style="fill:none;stroke-width:1.2;stroke-linecap:butt;stroke-linejoin:miter;stroke:rgb(0%,0%,100%);stroke-opacity:1;stroke-miterlimit:10;" d="M 90.242188 97.691406 L 101.613281 88.878906 "/>
<path style="fill:none;stroke-width:1.2;stroke-linecap:butt;stroke-linejoin:miter;stroke:rgb(0%,0%,0%);stroke-opacity:1;stroke-miterlimit:10;" d="M 101.613281 88.878906 L 112.984375 80.066406 "/>
<path style="fill:none;stroke-width:1.2;stroke-linecap:butt;stroke-linejoin:miter;stroke:rgb(0%,0%,100%);stroke-opacity:1;stroke-miterlimit:10;" d="M 96.664062 101.28125 L 105.761719 94.230469 "/>
<path style="fill:none;stroke-width:1.2;stroke-linecap:butt;stroke-linejoin:miter;stroke:rgb(0%,0%,0%);stroke-opacity:1;stroke-miterlimit:10;" d="M 105.761719 94.230469 L 114.859375 87.179688 "/>
<path style=" stroke:none;fill-rule:nonzero;fill:rgb(100%,100%,100%);fill-opacity:1;" d="M 86.242188 90.691406 L 95.242188 90.691406 L 95.242188 104.691406 L 86.242188 104.691406 Z M 86.242188 90.691406 "/>
<g style="fill:rgb(0%,0%,100%);fill-opacity:1;">
  <use xlink:href="#glyph0-2" x="86.242188" y="101.830078"/>
</g>
<path style="fill:none;stroke-width:1.2;stroke-linecap:butt;stroke-linejoin:miter;stroke:rgb(0%,0%,0%);stroke-opacity:1;stroke-miterlimit:10;" d="M 112.984375 80.066406 L 124.882812 88.15625 "/>
<path style="fill:none;stroke-width:1.2;stroke-linecap:butt;stroke-linejoin:miter;stroke:rgb(100%,0%,0%);stroke-opacity:1;stroke-miterlimit:10;" d="M 124.882812 88.15625 L 136.777344 96.25 "/>
<path style="fill:none;stroke-width:1.2;stroke-linecap:butt;stroke-linejoin:miter;stroke:rgb(100%,0%,0%);stroke-opacity:1;stroke-miterlimit:10;" d="M 136.777344 96.25 L 132.757812 110.0625 "/>
<path style="fill:none;stroke-width:1.2;stroke-linecap:butt;stroke-linejoin:miter;stroke:rgb(0%,0%,0%);stroke-opacity:1;stroke-miterlimit:10;" d="M 132.757812 110.0625 L 128.738281 123.875 "/>
<path style=" stroke:none;fill-rule:nonzero;fill:rgb(100%,100%,100%);fill-opacity:1;" d="M 131.777344 89.25 L 141.777344 89.25 L 141.777344 103.25 L 131.777344 103.25 Z M 131.777344 89.25 "/>
<g style="fill:rgb(100%,0%,0%);fill-opacity:1;">
  <use xlink:href="#glyph0-3" x="131.777344" y="100.388672"/>
</g>
<path style="fill:none;stroke-width:1.2;stroke-linecap:butt;stroke-linejoin:miter;stroke:rgb(0%,0%,0%);stroke-opacity:1;stroke-miterlimit:10;" d="M 128.738281 123.875 L 146.363281 146.617188 "/>
<path style="fill:none;stroke-width:1.2;stroke-linecap:butt;stroke-linejoin:miter;stroke:rgb(0%,0%,0%);stroke-opacity:1;stroke-miterlimit:10;" d="M 146.363281 146.617188 L 135.484375 173.253906 "/>
<path style="fill:none;stroke-width:1.2;stroke-linecap:butt;stroke-linejoin:miter;stroke:rgb(0%,0%,0%);stroke-opacity:1;stroke-miterlimit:10;" d="M 146.363281 146.617188 L 174.875 142.722656 "/>
<path style="fill:none;stroke-width:1.2;stroke-linecap:butt;stroke-linejoin:miter;stroke:rgb(0%,0%,0%);stroke-opacity:1;stroke-miterlimit:10;" d="M 150.132812 152.9375 L 172.9375 149.820312 "/>
<path style="fill:none;stroke-width:1.2;stroke-linecap:butt;stroke-linejoin:miter;stroke:rgb(0%,0%,0%);stroke-opacity:1;stroke-miterlimit:10;" d="M 135.484375 173.253906 L 153.109375 195.996094 "/>
<path style="fill:none;stroke-width:1.2;stroke-linecap:butt;stroke-linejoin:miter;stroke:rgb(0%,0%,0%);stroke-opacity:1;stroke-miterlimit:10;" d="M 142.597656 171.382812 L 156.699219 189.574219 "/>
<path style="fill:none;stroke-width:1.2;stroke-linecap:butt;stroke-linejoin:miter;stroke:rgb(0%,0%,0%);stroke-opacity:1;stroke-miterlimit:10;" d="M 153.109375 195.996094 L 181.617188 192.101562 "/>
<path style="fill:none;stroke-width:1.2;stroke-linecap:butt;stroke-linejoin:miter;stroke:rgb(0%,0%,0%);stroke-opacity:1;stroke-miterlimit:10;" d="M 181.617188 192.101562 L 187.058594 178.785156 "/>
<path style="fill:none;stroke-width:1.2;stroke-linecap:butt;stroke-linejoin:miter;stroke:rgb(0%,0%,100%);stroke-opacity:1;stroke-miterlimit:10;" d="M 187.058594 178.785156 L 192.5 165.46875 "/>
<path style="fill:none;stroke-width:1.2;stroke-linecap:butt;stroke-linejoin:miter;stroke:rgb(0%,0%,100%);stroke-opacity:1;stroke-miterlimit:10;" d="M 203.585938 210.683594 L 192.601562 201.394531 "/>
<path style="fill:none;stroke-width:1.2;stroke-linecap:butt;stroke-linejoin:miter;stroke:rgb(0%,0%,0%);stroke-opacity:1;stroke-miterlimit:10;" d="M 192.601562 201.394531 L 181.617188 192.101562 "/>
<path style="fill:none;stroke-width:1.2;stroke-linecap:butt;stroke-linejoin:miter;stroke:rgb(0%,0%,100%);stroke-opacity:1;stroke-miterlimit:10;" d="M 205.761719 203.65625 L 196.976562 196.222656 "/>
<path style="fill:none;stroke-width:1.2;stroke-linecap:butt;stroke-linejoin:miter;stroke:rgb(0%,0%,0%);stroke-opacity:1;stroke-miterlimit:10;" d="M 196.976562 196.222656 L 188.1875 188.792969 "/>
<path style="fill:none;stroke-width:1.2;stroke-linecap:butt;stroke-linejoin:miter;stroke:rgb(0%,0%,100%);stroke-opacity:1;stroke-miterlimit:10;" d="M 192.5 165.46875 L 183.6875 154.09375 "/>
<path style="fill:none;stroke-width:1.2;stroke-linecap:butt;stroke-linejoin:miter;stroke:rgb(0%,0%,0%);stroke-opacity:1;stroke-miterlimit:10;" d="M 183.6875 154.09375 L 174.875 142.722656 "/>
<path style="fill:none;stroke-width:1.2;stroke-linecap:butt;stroke-linejoin:miter;stroke:rgb(0%,0%,100%);stroke-opacity:1;stroke-miterlimit:10;" d="M 192.5 165.46875 L 206.847656 166.527344 "/>
<path style="fill:none;stroke-width:1.2;stroke-linecap:butt;stroke-linejoin:miter;stroke:rgb(0%,0%,0%);stroke-opacity:1;stroke-miterlimit:10;" d="M 206.847656 166.527344 L 221.195312 167.585938 "/>
<path style=" stroke:none;fill-rule:nonzero;fill:rgb(100%,100%,100%);fill-opacity:1;" d="M 188.5 158.46875 L 197.5 158.46875 L 197.5 172.46875 L 188.5 172.46875 Z M 188.5 158.46875 "/>
<g style="fill:rgb(0%,0%,100%);fill-opacity:1;">
  <use xlink:href="#glyph0-2" x="188.5" y="169.607422"/>
</g>
<path style="fill:none;stroke-width:1.2;stroke-linecap:butt;stroke-linejoin:miter;stroke:rgb(0%,0%,0%);stroke-opacity:1;stroke-miterlimit:10;" d="M 221.195312 167.585938 L 224.621094 181.558594 "/>
<path style="fill:none;stroke-width:1.2;stroke-linecap:butt;stroke-linejoin:miter;stroke:rgb(0%,0%,100%);stroke-opacity:1;stroke-miterlimit:10;" d="M 224.621094 181.558594 L 228.046875 195.53125 "/>
<path style="fill:none;stroke-width:1.2;stroke-linecap:butt;stroke-linejoin:miter;stroke:rgb(0%,0%,0%);stroke-opacity:1;stroke-miterlimit:10;" d="M 215.304688 171.992188 L 218.046875 183.171875 "/>
<path style="fill:none;stroke-width:1.2;stroke-linecap:butt;stroke-linejoin:miter;stroke:rgb(0%,0%,100%);stroke-opacity:1;stroke-miterlimit:10;" d="M 218.046875 183.171875 L 220.785156 194.347656 "/>
<path style="fill:none;stroke-width:1.2;stroke-linecap:butt;stroke-linejoin:miter;stroke:rgb(0%,0%,0%);stroke-opacity:1;stroke-miterlimit:10;" d="M 221.195312 167.585938 L 239.777344 145.617188 "/>
<path style="fill:none;stroke-width:1.2;stroke-linecap:butt;stroke-linejoin:miter;stroke:rgb(0%,0%,100%);stroke-opacity:1;stroke-miterlimit:10;" d="M 228.046875 195.53125 L 203.585938 210.683594 "/>
<path style=" stroke:none;fill-rule:nonzero;fill:rgb(100%,100%,100%);fill-opacity:1;" d="M 224.046875 188.53125 L 233.046875 188.53125 L 233.046875 202.53125 L 224.046875 202.53125 Z M 224.046875 188.53125 "/>
<g style="fill:rgb(0%,0%,100%);fill-opacity:1;">
  <use xlink:href="#glyph0-2" x="224.046875" y="199.669922"/>
</g>
<path style=" stroke:none;fill-rule:nonzero;fill:rgb(100%,100%,100%);fill-opacity:1;" d="M 199.585938 203.683594 L 208.585938 203.683594 L 208.585938 217.683594 L 199.585938 217.683594 Z M 199.585938 203.683594 "/>
<g style="fill:rgb(0%,0%,100%);fill-opacity:1;">
  <use xlink:href="#glyph0-2" x="199.585938" y="214.822266"/>
</g>
<path style="fill:none;stroke-width:1.2;stroke-linecap:butt;stroke-linejoin:miter;stroke:rgb(0%,0%,0%);stroke-opacity:1;stroke-miterlimit:10;" d="M 239.777344 145.617188 L 264.75 131.324219 "/>
<path style="fill:none;stroke-width:1.2;stroke-linecap:butt;stroke-linejoin:miter;stroke:rgb(0%,0%,0%);stroke-opacity:1;stroke-miterlimit:10;" d="M 239.777344 145.617188 L 221.367188 123.503906 "/>
<path style="fill:none;stroke-width:1.2;stroke-linecap:butt;stroke-linejoin:miter;stroke:rgb(0%,0%,0%);stroke-opacity:1;stroke-miterlimit:10;" d="M 264.636719 160.097656 L 239.777344 145.617188 "/>
<path style="fill:none;stroke-width:1.2;stroke-linecap:butt;stroke-linejoin:miter;stroke:rgb(0%,0%,0%);stroke-opacity:1;stroke-miterlimit:10;" d="M 264.75 131.324219 L 264.636719 160.097656 "/>
</g>
</svg>

<svg xmlns="http://www.w3.org/2000/svg" xmlns:xlink="http://www.w3.org/1999/xlink" width="300pt" height="300pt" viewBox="0 0 300 300"><defs><symbol overflow="visible"><path d="M.594 2.125V-8.47h6V2.126zm.672-.672h4.671V-7.78h-4.67zm0 0"/></symbol><symbol overflow="visible" id="a"><path d="M1.172-8.75h5.03v1H2.36v2.578h3.468v1h-3.47V0H1.173zm0 0"/></symbol><symbol overflow="visible" id="b"><path d="M1.172-8.75h1.594l3.89 7.313V-8.75h1.14V0H6.204L2.328-7.313V0H1.172zm0 0"/></symbol><symbol overflow="visible" id="c"><path d="M4.734-7.953c-.867 0-1.554.324-2.062.97-.5.635-.75 1.51-.75 2.624 0 1.094.25 1.965.75 2.61.508.637 1.195.953 2.062.953.852 0 1.532-.316 2.032-.953.507-.645.765-1.516.765-2.61 0-1.113-.257-1.988-.764-2.624-.5-.645-1.18-.97-2.032-.97zm0-.953c1.22 0 2.192.414 2.922 1.234.74.824 1.11 1.93 1.11 3.313 0 1.376-.37 2.477-1.11 3.298C6.926-.24 5.953.17 4.734.17c-1.23 0-2.214-.41-2.953-1.234C1.04-1.882.673-2.984.673-4.36c0-1.382.367-2.488 1.11-3.312.738-.82 1.722-1.234 2.952-1.234zm0 0"/></symbol></defs><g><path fill="#fff" d="M0 0h300v300H0z"/><path d="M42.59 120.53l6.254 12.954" stroke-width="1.2" stroke="#3cc" stroke-miterlimit="10" fill="none"/><path d="M48.844 133.484l6.258 12.957" stroke-width="1.2" stroke="#000" stroke-miterlimit="10" fill="none"/><path d="M35.59 113.53h7v14h-7zm0 0" fill="#fff"/><use xlink:href="#a" x="35.59" y="124.67" fill="#3cc"/><path d="M55.102 146.44l-16.184 23.794M59.082 152.63l-12.945 19.03M83.797 148.56l-28.695-2.12M38.918 170.234l12.516 25.91M51.434 196.145L43.34 208.04" stroke-width="1.2" stroke="#000" stroke-miterlimit="10" fill="none"/><path d="M43.34 208.04l-8.09 11.894" stroke-width="1.2" stroke="#3cc" stroke-miterlimit="10" fill="none"/><path d="M51.434 196.145l28.695 2.117M54.8 189.602l22.958 1.695" stroke-width="1.2" stroke="#000" stroke-miterlimit="10" fill="none"/><path d="M28.25 212.934h7v14h-7zm0 0" fill="#fff"/><use xlink:href="#a" x="28.25" y="224.072" fill="#3cc"/><path d="M80.13 198.262l16.18-23.793M96.31 174.47l-12.513-25.91M88.96 174.824l-10.007-20.73M83.797 148.56l16.183-23.79M99.98 124.77l-4.867-13.54" stroke-width="1.2" stroke="#000" stroke-miterlimit="10" fill="none"/><path d="M95.113 111.23l-4.87-13.54" stroke-width="1.2" stroke="#00f" stroke-miterlimit="10" fill="none"/><path d="M128.738 123.875l-28.758.895M125.652 117.2l-23.007.714" stroke-width="1.2" stroke="#000" stroke-miterlimit="10" fill="none"/><path d="M90.242 97.69l11.37-8.81" stroke-width="1.2" stroke="#00f" stroke-miterlimit="10" fill="none"/><path d="M101.613 88.88l11.37-8.814" stroke-width="1.2" stroke="#000" stroke-miterlimit="10" fill="none"/><path d="M96.664 101.28l9.098-7.05" stroke-width="1.2" stroke="#00f" stroke-miterlimit="10" fill="none"/><path d="M105.762 94.23l9.097-7.05" stroke-width="1.2" stroke="#000" stroke-miterlimit="10" fill="none"/><path d="M86.242 90.69h9v14h-9zm0 0" fill="#fff"/><use xlink:href="#b" x="86.242" y="101.83" fill="#00f"/><path d="M112.984 80.066l11.9 8.09" stroke-width="1.2" stroke="#000" stroke-miterlimit="10" fill="none"/><path d="M124.883 88.156l11.894 8.094M136.777 96.25l-4.02 13.813" stroke-width="1.2" stroke="#f00" stroke-miterlimit="10" fill="none"/><path d="M132.758 110.063l-4.02 13.812" stroke-width="1.2" stroke="#000" stroke-miterlimit="10" fill="none"/><path d="M131.777 89.25h10v14h-10zm0 0" fill="#fff"/><use xlink:href="#c" x="131.777" y="100.389" fill="#f00"/><path d="M128.738 123.875l17.625 22.742M146.363 146.617l-10.88 26.637M146.363 146.617l28.512-3.894M150.133 152.938l22.804-3.118M135.484 173.254l17.625 22.742M142.598 171.383l14.1 18.19M153.11 195.996l28.507-3.894M181.617 192.102l5.442-13.317" stroke-width="1.2" stroke="#000" stroke-miterlimit="10" fill="none"/><path d="M187.06 178.785l5.44-13.316M203.586 210.684l-10.984-9.29" stroke-width="1.2" stroke="#00f" stroke-miterlimit="10" fill="none"/><path d="M192.602 201.395l-10.985-9.293" stroke-width="1.2" stroke="#000" stroke-miterlimit="10" fill="none"/><path d="M205.762 203.656l-8.785-7.433" stroke-width="1.2" stroke="#00f" stroke-miterlimit="10" fill="none"/><path d="M196.977 196.223l-8.79-7.43" stroke-width="1.2" stroke="#000" stroke-miterlimit="10" fill="none"/><path d="M192.5 165.47l-8.813-11.376" stroke-width="1.2" stroke="#00f" stroke-miterlimit="10" fill="none"/><path d="M183.688 154.094l-8.813-11.37" stroke-width="1.2" stroke="#000" stroke-miterlimit="10" fill="none"/><path d="M192.5 165.47l14.348 1.057" stroke-width="1.2" stroke="#00f" stroke-miterlimit="10" fill="none"/><path d="M206.848 166.527l14.347 1.06" stroke-width="1.2" stroke="#000" stroke-miterlimit="10" fill="none"/><path d="M188.5 158.47h9v14h-9zm0 0" fill="#fff"/><use xlink:href="#b" x="188.5" y="169.607" fill="#00f"/><path d="M221.195 167.586l3.426 13.973" stroke-width="1.2" stroke="#000" stroke-miterlimit="10" fill="none"/><path d="M224.62 181.56l3.427 13.97" stroke-width="1.2" stroke="#00f" stroke-miterlimit="10" fill="none"/><path d="M215.305 171.992l2.742 11.18" stroke-width="1.2" stroke="#000" stroke-miterlimit="10" fill="none"/><path d="M218.047 183.172l2.738 11.176" stroke-width="1.2" stroke="#00f" stroke-miterlimit="10" fill="none"/><path d="M221.195 167.586l18.582-21.97" stroke-width="1.2" stroke="#000" stroke-miterlimit="10" fill="none"/><path d="M228.047 195.53l-24.46 15.154" stroke-width="1.2" stroke="#00f" stroke-miterlimit="10" fill="none"/><path d="M224.047 188.53h9v14h-9zm0 0" fill="#fff"/><use xlink:href="#b" x="224.047" y="199.67" fill="#00f"/><path d="M199.586 203.684h9v14h-9zm0 0" fill="#fff"/><use xlink:href="#b" x="199.586" y="214.822" fill="#00f"/><path d="M239.777 145.617l24.973-14.293M239.777 145.617l-18.41-22.113M264.637 160.098l-24.86-14.48M264.75 131.324l-.113 28.774" stroke-width="1.2" stroke="#000" stroke-miterlimit="10" fill="none"/></g></svg>
